X:1
T:Laudi francescane
T:Laudario di Cortona
T:Alta trinità beata
T:XXXI
T:Troppo perde 'l tempo
T:XXXII
T:Laudar vollio per amore
T:XXXVI
T:Scritto con MuseScore, un software libero e gratuito: http://musescore.org/it 
Z:Scritto con MuseScore, un software libero e gratuito: http://musescore.org/it
%%score ( 1 2 )
L:1/8
Q:1/4=85
M:none
K:C
V:1 treble nm="Voice"
V:2 treble 
V:1
 C2 (EF) G2 G2 | (AG/)F/ A2 G2 G2 | C2 C2 E2 (FE) | D C (DE) C2 C2 || c2 c2 c2 c2 | %5
w: Al\- ta * tri\- ni|tà _ _ be\- a\- ta,|da noi sem\- pre *|si' a\- do _ ra\- ta.|Tri\- ni\- ta\- de|
 B2 A2 (3(AG)A G2 | c2 c2 c2 B2 | B2 B2 (3(AG)A G2 | E2 F2 G2 G2 | (3(AG)F G2 F2 F2 | %10
w: glo\- ri\- o\- _ _ sa,|u\- ni\- tà ma\-|ra\- vil\- lio\- _ _ sa,|tu se' man\- na|sa\- _ _ vo- ro\- sa|
 C2 C2 E2 (FE) | (DC) (DE) C2 C2 x4 |][K:F]"^( )" D E F E D2 C2 | D2 F G A2 A2 | B A G A F2 G2 | %15
w: a tut' or de _|si- * de- * ra\- ta.|Trop\- po per\- de~͜~'l tem\- po|ki ben non t'a\- ma,|dolç' a\- mor Je\- sû, so\-|
 F2 (DC) D2 D2 || D2 A A B2 A G | A2 F G A2 A2 | A B A G A2 F G | F2 DC D2 D2 | D A A B A2 G2 | %21
w: vr'ogn' a- * mo\- re|A\- mor, ki t'a\- ma non|sta o\- ti\- o\- so,|tan\- to li par dol\- çe de|te gu- * sta\- re;|ma tut\- ta sor vi\- ve|
 A2 F G A2 A A | B A G A F2 G2 | F2 (DC) D2 D2 | D2 G D G F D2 | E2 D D C2 C2 | D2 F G F2 D2 | %27
w: de\- si\- de\- ro\- so co\-|me te pos\- sa strec\- to|più a- * ma\- re;|ké tan\- to sta per te|lo cor gio\- io\- so;|ki nol sen\- tis\- se|
 F G F G A2 A2 | d2 c2 A2 (B/A/) G | F2 G2 F2 (DC) | D2 D2 x4 |] D2 A2 A2 A2 | %32
w: nol sa\- prie par\- la\- re|quant' è dolç' a _ gu\-|star lo tuo sa- *|vo\- re.|Lau\- dar vol\- lio|
 F2 G2 (F/E/D/C/) D2 | C2 D2 E2 F2 | (3(GA)G F2 (3(ED)C D2 || A2 c2 d2 d c | (3(cB)A G2 (AG) A2 | %37
w: per a\- mo _ _ _ re|lo pri\- mer fra\-|te _ _ mi\- no _ _ re.|San Fran\- ci\- sco, a\-|mor _ _ di\- lec- * to,|
 A2 c2 d2 c2 | (3(cB)A G2 (AG) A2 | D2 A A A2 A2 | F2 G2 (F/E/D/C/) D2 | C2 D E F2 F2 | %42
w: Chri\- sto t'à nel|suo- * * co\- spec- * to,|per\- hô ke fo\- sti|ben per\- fec _ _ _ to|e suo di\- ric\- to|
 (3(GA)G F2 (3(ED)C D2 |] %43
w: ser _ _ vi\- do _ _ re.|
V:2
 x8 | x8 | x8 | x8 || x8 | x8 | x8 | x8 | x8 | x2 (GF) x4 | x8 | x12 |][K:F] x8 | x8 | x8 | x8 || %16
 x8 | x8 | x8 | x8 | x8 | x8 | x8 | x8 | x8 | x8 | x8 | x8 | x8 | x8 | x8 |] x8 | x8 | x8 | x8 || %35
 x8 | x8 | x8 | x8 | x8 | x8 | x8 | x8 |] %43

